X:18231
T:Vaqueirada (CT 045)
R:Vaqueirada
C:Tradicional
S:Msica Tradicional Asturiana, (C) Tello & Tito. Asturies, 2001.
S:http://pagina.de/MusTradAst <telloytito@asturies.org>
N:Cancin de baile de pandero, transcrita en Somiedu.
O:Somiedu
A:Asturies
Z:Cancioneru de Torner 045
M:6/8
L:1/8
Q:3/8=88
W:Cmu quies que yo vaya
W:a los arndanos, nia,
W:si nun s l'arandanera
W:que t ties elexida.
K:C
|GGG GcB|(c2 B/2c/4B/4) A3|A3/2B/2c cdc|B2A B2z|
B3/2A/2G GAB|c2A B3|B3/2A/2G GAB|(A3/2B/4A/4) G- G2 z||
